X:104
T:Oddity, The
M:C
L:1/8
B:Thompson's Compleat Collection of 200 Favourite Country Dances, vol. 3 (London, 1773)
Z:Transcribed and edited by Flynn Titford-Mock, 2007
Z:abc's:AK/Fiddler's Companion
K:A
Acea aecA | BfdB AGFE | FAdc defg | aecA AGFE | Acea agfe |
^defb agfe | bgeb af^da | gfe^d {d}e4::eBGE Ace=g | fedc dAFD |
f^dBd fgaf | gfe^d eBGE | FAdc defg | afdB AGFE | FAdc dfed | cBAG {G}A4 :|

